X:155
T:Cream Pot
S:Colin Hume's website,  colinhume.com  - chords can also be printed below the stave.
Q:3/8=112
M:6/8
L:1/8
C:Thompson, 1757
K:G
P:A
|: "G"G2B B2d | "G"dBd "C"efg | "G"G2B B2d | "G"dBG "D"AFD |\
"C"E2C- CEG | "D"F2D- DB,G, | "G"(B/c/d)B "D7"cAF | "G"G3 G,3 :|
P:B
"D"d2f "D7"f2g | "G"gdc BAG | "C"c/d/ec "Am"Aag | "D"fed "A7"e^cA |\
"D"a(f/g/a) "A7"g2e | "Bm"f2d "A7"e^cA | "Bm"(B/^c/d)F "A7"Edc | "D"d3 D3 |
"C"c3- cec | "G"B3- BdB | "D7"AFA "G"BG"(C)"c | "G"dBG "D"AFD |\
"C"E2C- CEG | "D"F2D- DB,G, | "G"B/c/dB "D7"cAF | "G"G3 G,3 |]

